X:1
T:Title
%%score { ( 1 4 ) | ( 2 3 ) }
L:1/8
M:6/8
K:Eb
V:1 treble nm="Grand Piano"
V:4 treble 
V:2 bass 
V:3 bass 
V:1
 z3 z2[Q:1/4=100] [EG]/[FA]/ | [GB][_G=A][=GB] GFE | A3 c2 c | B=AB EFG | [DF]3- [DF]2 [EG]/[FA]/ | %5
 [GB][_G=A][=GB] GFE | A3 c2 c | B=AB [F_A][EG][DF] |[M:5/8] E-E- E3 |[M:1/8] G/[GB]/ | %10
[M:3/4] c=B c[ce] d[EAc] | [GB]3 .[EG]3 | B=A BE FG | [DF]6 | c=B c[ce] d[EAc] | %15
 [GB]-[EG-B-] [EGB]B, B,c | B=A B[F_A] [EG][DF] |[M:5/8] E-E- E3 |] %18
V:2
 z3 z2 [E,B,]/[E,B,]/ | [E,E][E,E][E,E] [E,B,E][F,B,D][G,B,] | [A,CE]3 [A,E]2 [A,E] | %3
 [E,G,E][E,_G,E][E,=G,E] [G,B,][F,B,D][E,B,E] | [B,,B,]3- [B,,B,]2 [E,B,]/[E,B,]/ | %5
 [E,E][E,E][E,E] [E,B,E][F,B,D][G,B,] | [A,CE]3 [A,E]2 [A,E] | %7
 [E,G,E][E,_G,E][E,=G,E] [B,,B,][B,,B,][B,,A,] |[M:5/8] [E,G,]-[E,G,]- [E,G,]3 | %9
[M:1/8] [E,B,E]/[E,E]/ |[M:3/4][K:treble] [A,EA][A,DA] .[A,EA]2 =B[K:bass]A, | %11
 E,E, E,E, E,[E,A,E] | [E,G,E][E,_G,E] [E,=G,E][G,B,] [F,B,D][E,B,E] | %13
 [B,,B,]B,, B,, B,,2 [E,B,E]/[E,E]/ | [A,EA][A,DA] .[A,EA]2 =B[K:bass]A, | E,E, E,E, E,[E,A,E] | %16
 [E,G,E][E,_G,E] [E,=G,E][B,,B,] [B,,B,][B,,A,] |[M:5/8] [E,G,]-[E,G,]- [E,G,]3 |] %18
V:3
 x6 | x6 | x6 | x6 | x6 | x6 | x6 | x6 |[M:5/8] x5 |[M:1/8] x | %10
[M:3/4][K:treble] z2 z .[A,E]3[K:bass] | x6 | x6 | x6 | z2 z .[A,E]3[K:bass] | x6 | x6 | %17
[M:5/8] x5 |] %18
V:4
 x6 | x6 | x6 | x6 | x6 | x6 | x6 | x6 |[M:5/8] x5 |[M:1/8] x |[M:3/4] x6 | EE EB, B,c | x6 | %13
 z B, B, B,2 G/[GB]/ | x6 | .E2 z .[EG]3 | x6 |[M:5/8] x5 |] %18

